X:271
T:Aida de La Fuente
R:Romance
C:Tradicional
S:Música Tradicional Asturiana, (C) Tello & Tito. Asturies, 2001.
S:http://pagina.de/MusTradAst <telloytito@asturies.org>
A:Asturies
Z:DyC en Teberga
M:2/4
L:1/8
Q:1/4=120
K:Cm
GG
|: c3 =B|c3 =B|d2 c2-|c2 B=A|B3 =A|B3 =A|c2 B2-|B2 z G/A/|
|BB AG|FF z F/F/|BB BA|GG GF|E3 E|C2-ED|C2 C2-|[1 C2 GG :|[2 C2 z2|


